!!!COM: Hugo Wolf
!!!CNT: Deutscher
!!!TXO: Deutsche 
!!!OPR: Gedichte von J.W. v. Goethe
!!!OTL: Mignon III
!!!ONM: No. 7
!!!ODT: 1888/
!!!LYR: Goethe
!!!ENC: Brian Bice
!!!YOR: 65 Songs for voice and piano, International Music Company, 1960
!!NB: Vocal melody and text only encoded.
**kern	**silbe
*clefG2	*
*k[]	*
*M4/4	*
=1	=1
4r	.
8r	.
{8cc	{So
8b	lasst
8a	mich
[4g#	schei-
=2	=2
8g#]	|
8b	-nen,
8e	bis
8e	ich
4e	wer-
4e}	-de,}
=3	=3
2r	.
{8dd	{zieht
8cc	|
8b	mir
8b	das
=4	=4
8b	wei-
8a	-sse
8dd	Kleid
8cc	nicht
4.g#}	aus!}
8r	.
=5	=5
8r	.
{8gn	{Ich
4.gn	ei-
8b-	-le
8a	von
8bn	der
=6	=6
(8cc#	scho2-
4ee)	|
8g	-nen
(8g	Er-
8g-)	|
4f}	-de}
=7	=7
8r	.
{8a-	{hin-
4.a-	-ab
8gn	in
8gn	je-
8b-	-nes
=8	=8
4d	fe-
4c#	-ste
[2g#	Haus.
=9	=9
4g#]}	|}
4r	.
2r	.
=10	=10
8r	.
{8b	{Dort
4.b	ruh'
8b	ich
8b	ei-
8b	-ne
=11	=11
4.b	klei-
8cc#	-ne
8b	Stil-
4a#}	-le,}
8r	.
=12	=12
{8cc#	{dann
[4.cc#	o2ff-
8cc#]	|
8cc#	-net
8cc#	sich
8cc#	der
=13	=13
4.cc#	fri-
8dd#	-sche
2ee-}	Blick;}
=14	=14
8r	.
{8fn	{ich
[4fn	las-
8fn]	|
8g-	-se
8g-	dann
8a	die
=15	=15
4.b-	rei-
8dd	-ne
4a	Hu2l-
8gn}	-le,}
{8gn	{den
=16	=16
4b-	Gu2r-
4cc	-tel
8d	und
8e-	den
[4f	Kranz
=17	=17
4.f]	|
8f	zu-
4en}	-ru2ck.}
4r	.
=18	=18
4r	.
8r	.
{8cc	{Und
8b	je-
8a	-ne
(4dd	himm-
=19	=19
8cc)	|
8b	-li-
8a	-schen
8cc	Ge-
(8.g#	-stal-
16e)	|
4e}	-ten,}
=20	=20
4r	.
8r	.
{8cc	{sie
8b	fra-
8a	-gen
[4dd	nicht
=21	=21
8dd]	|
8a	nach
8g	Mann
8f	und
2b}	Weib,}
=22	=22
8r	.
{8g	{und
8g	kei-
8b-	-ne
4b-	Klei-
4a	-der,
=23	=23
8r	.
4ee	kei-
8g	-ne
(8g	Fal-
8g-)	|
8f}	-ten}
{8dd	{um-
=24	=24
[2dd	-ge-
8dd]	|
8cc	-ben
8b-	den
8a	ver-
=25	=25
(4a	-kla2r-
8g#)	|
8f#	-ten
4.a#}	Leib.}
8r	.
=26	=26
2r	.
8r	.
{8g#	{Zwar
8g#	lebt'
8g#	ich
=27	=27
8g#	oh-
8g#	-ne
8.g#	Sorg
16g#	und
4g#	Mu2-
4f##}	-he,}
=28	=28
8r	.
{8a#	{doch
[4a#	fu2hlt'
8a#]	|
8a#	ich
(4a#	tie-
=29	=29
8b-)	|
8b-	-fen
8.b-	Schmerz
16cc	ge-
2cc}	-nung.}
=30	=30
8r	.
{8b-	{Vor
[4b-	Kum-
8b-]	|
8dd-	-mer
[4cc	al-
=31	=31
8cc]	|
8ff	-tert'
8ff	ich
8ff	zu
4ff	fru2-
4ee-}	-he;}
=32	=32
{4gg-	{macht
8gg-	mich
8gg-	auf
(8ggn	e-
[4.ff)	|
=33	=33
8ff]	|
8f	-wig
[4f	wie-
8f]	|
8e	-der
[4ee	jung!
=34	=34
*M2/4	*
4.ee]}	|}
8r	.
*-	*-
